icons/rbxmk.svg

<svg width="24" height="24" viewBox="0 0 24 24" fill="none" xmlns="http://www.w3.org/2000/svg">
<path fill-rule="evenodd" clip-rule="evenodd" d="M6.33108 2L22.4949 6.33108L20.041 15.4891L17.7918 14.8864L18.7319 11.3778L18.7288 11.3769L17.3796 11.0154L15.2505 10.4449L13.8956 10.0819L13.5321 11.4384L12.9553 13.591L10.8299 13.0215L11.7702 9.51237L10.416 9.14952L10.416 9.14954L8.28846 8.57947L8.28847 8.57945L6.93724 8.21739L5.99764 11.724L3.8795 11.1565L3.5159 12.5134L5.63404 13.081L6.98472 13.4429L6.98527 13.4431L7.92544 9.93427L10.053 10.5043L9.47573 12.6586L9.47569 12.6586L9.11275 14.0131L9.1128 14.0131L10.467 14.376L12.5924 14.9455L13.947 15.3085L13.9473 15.3085L14.887 11.8015L17.0161 12.372L16.4395 14.5241L16.4394 14.5241L16.0764 15.879L16.0764 15.879L17.4287 16.2414L19.678 16.844L18.1638 22.4949L2 18.1638L6.33108 2Z" fill="#00C853"/>
</svg>

<svg xmlns="http://www.w3.org/2000/svg" fill="none" viewBox="0 0 24 24"><path fill="#00C853" fill-rule="evenodd" d="m6.331 2 16.164 4.331-2.454 9.158-2.25-.603.94-3.508-.002-.001-1.35-.362-2.129-.57-1.354-.363-.364 1.356-.577 2.153-2.125-.57.94-3.509-1.354-.362-2.128-.57-1.35-.363-.94 3.507-2.118-.568-.364 1.357 2.118.568 1.35.362h.001l.94-3.509 2.128.57-.577 2.155-.363 1.354 1.354.363 2.125.57 1.355.363.94-3.507 2.13.57-.578 2.152-.363 1.355 1.353.362 2.249.603-1.514 5.65L2 18.165z" clip-rule="evenodd"/></svg>
